front-end/assets/icons/ic_american_flag.svg

<svg fill="none" viewBox="0 0 24 24" xmlns="http://www.w3.org/2000/svg">
      <g>
        <path
          d="M23.63 4.66671C23.168 3.87271 22.318 3.33337 21.3333 3.33337H12V4.66671H23.63ZM0 16.6667H24V18H0V16.6667ZM12 11.3334H24V12.6667H12V11.3334ZM12 8.66671H24V10H12V8.66671ZM0 14H24V15.3334H0V14ZM2.66667 20.6667H21.3333C22.318 20.6667 23.168 20.1274 23.63 19.3334H0.37C0.832 20.1274 1.682 20.6667 2.66667 20.6667ZM12 6.00004H24V7.33337H12V6.00004Z"
          fill="#D92D20"
        />
        <path
          d="m0.045333 18.453c0.011333 0.062 0.024 0.124 0.039333 0.1847 0.017333 0.0673 0.038666 0.132 0.061333 0.1973 0.059333 0.1727 0.13133 0.3394 0.222 0.4954l2e-3 0.0033h23.26l0.0013-0.0027c0.0895-0.1571 0.1636-0.3226 0.2214-0.494 0.0439-0.1251 0.0778-0.2535 0.1013-0.384 0.0273-0.1466 0.046-0.2973 0.046-0.4526h-24c0 0.1553 0.018667 0.3053 0.045333 0.4526zm-0.045333-3.1193h24v1.3333h-24v-1.3333zm0-2.6667v1.3334h24v-1.3334h-24zm12-2.6666h12v1.3333h-12v-1.3333zm0-2.6667h12v1.3333h-12v-1.3333zm-11.63-2.6667-2e-3 0.00333 2e-3 -0.00333zm-0.28467 0.696c0.016667-0.068 0.04-0.13267 0.061334-0.198-0.023152 0.06513-0.043613 0.13118-0.061334 0.198zm11.915 0.63733h12c0-0.15533-0.0187-0.306-0.046-0.45333-0.0233-0.1306-0.0575-0.25904-0.102-0.384-0.0578-0.17213-0.1321-0.33824-0.222-0.496h-11.63v1.3333z"
          fill="#F2F4F7"
        />
        <path
          d="m12 3.3334h-9.3333c-0.70725 0-1.3855 0.28096-1.8856 0.78105-0.5001 0.5001-0.78105 1.1784-0.78105 1.8856v6.6667h12v-9.3333z"
          fill="#0B70FE"
        />
        <path
          d="m1.334 5.1506 0.412 0.29933-0.15733 0.48333 0.41133-0.29866 0.412 0.29866-0.15733-0.48333 0.412-0.29933h-0.50933l-0.15734-0.484-0.15666 0.484h-0.50934zm1.3333 1.3333 0.412 0.29933-0.15734 0.48334 0.41134-0.29867 0.412 0.29867-0.15734-0.48334 0.412-0.29933h-0.50933l-0.15733-0.484-0.15667 0.484h-0.50933zm2.6667 0 0.41201 0.29933-0.15734 0.48334 0.41133-0.29867 0.412 0.29867-0.15733-0.48334 0.412-0.29933h-0.50933l-0.15734-0.484-0.15666 0.484h-0.50934zm2.6667 0 0.412 0.29933-0.15733 0.48334 0.41133-0.29867 0.412 0.29867-0.15733-0.48334 0.412-0.29933h-0.50933l-0.15734-0.484-0.15667 0.484h-0.50933zm-5.3333 2.6667 0.412 0.29933-0.15734 0.48333 0.41134-0.29866 0.412 0.29866-0.15734-0.48333 0.412-0.29933h-0.50933l-0.15733-0.484-0.15667 0.484h-0.50933zm2.6667 0 0.41201 0.29933-0.15734 0.48333 0.41133-0.29866 0.412 0.29866-0.15733-0.48333 0.412-0.29933h-0.50933l-0.15734-0.484-0.15666 0.484h-0.50934zm2.6667 0 0.412 0.29933-0.15733 0.48333 0.41133-0.29866 0.412 0.29866-0.15733-0.48333 0.412-0.29933h-0.50933l-0.15734-0.484-0.15667 0.484h-0.50933zm-4-4 0.412 0.29933-0.15733 0.48333 0.41133-0.29866 0.412 0.29866-0.15733-0.48333 0.412-0.29933h-0.50934l-0.15733-0.484-0.15667 0.484h-0.50933zm2.6667 0 0.412 0.29933-0.15734 0.48333 0.41134-0.29866 0.412 0.29866-0.15733-0.48333 0.41199-0.29933h-0.50933l-0.15733-0.484-0.15667 0.484h-0.50933zm2.6667 0 0.41201 0.29933-0.15734 0.48333 0.41133-0.29866 0.41202 0.29866-0.1573-0.48333 0.412-0.29933h-0.5094l-0.15732-0.484-0.15666 0.484h-0.50934zm-8 2.6667 0.412 0.29934-0.15733 0.48333 0.41133-0.29867 0.412 0.29867-0.15733-0.48333 0.412-0.29934h-0.50933l-0.15734-0.484-0.15666 0.484h-0.50934zm2.9213 0.78267 0.41133-0.29867 0.412 0.29867-0.15733-0.48333 0.412-0.29934h-0.50934l-0.15733-0.484-0.15667 0.484h-0.50933l0.412 0.29934-0.15733 0.48333zm2.412-0.78267 0.412 0.29934-0.15734 0.48333 0.41134-0.29867 0.412 0.29867-0.15733-0.48333 0.41199-0.29934h-0.50933l-0.15733-0.484-0.15667 0.484h-0.50933zm2.6667 0 0.41201 0.29934-0.15734 0.48333 0.41133-0.29867 0.41202 0.29867-0.1573-0.48333 0.412-0.29934h-0.5094l-0.15732-0.484-0.15666 0.484h-0.50934zm-8 2.6667 0.412 0.2993-0.15733 0.4833 0.41133-0.2986 0.412 0.2986-0.15733-0.4833 0.412-0.2993h-0.50933l-0.15734-0.48404-0.15666 0.48404h-0.50934zm2.9213 0.7826 0.41133-0.2986 0.412 0.2986-0.15733-0.4833 0.412-0.2993h-0.50934l-0.15733-0.48404-0.15667 0.48404h-0.50933l0.412 0.2993-0.15733 0.4833zm2.412-0.7826 0.412 0.2993-0.15734 0.4833 0.41134-0.2986 0.412 0.2986-0.15733-0.4833 0.41199-0.2993h-0.50933l-0.15733-0.48404-0.15667 0.48404h-0.50933zm2.6667 0 0.41201 0.2993-0.15734 0.4833 0.41133-0.2986 0.41202 0.2986-0.1573-0.4833 0.412-0.2993h-0.5094l-0.15732-0.48404-0.15666 0.48404h-0.50934z"
          fill="#fff"
        />
      </g>
      <defs>
        <clipPath id="a">
          <rect width="24" height="24" fill="#fff" />
        </clipPath>
      </defs>
    </svg>

<svg width="24" height="24" viewBox="0 0 24 24" fill="none" xmlns="http://www.w3.org/2000/svg">
<g clip-path="url(#clip0_563_12858)">
<path d="M23.63 4.66659C23.168 3.87259 22.318 3.33325 21.3333 3.33325H12V4.66659H23.63ZM0 16.6666H24V17.9999H0V16.6666ZM12 11.3333H24V12.6666H12V11.3333ZM12 8.66659H24V9.99992H12V8.66659ZM0 13.9999H24V15.3333H0V13.9999ZM2.66667 20.6666H21.3333C22.318 20.6666 23.168 20.1273 23.63 19.3333H0.37C0.832 20.1273 1.682 20.6666 2.66667 20.6666ZM12 5.99992H24V7.33325H12V5.99992Z" fill="#D92D20"/>
<path d="M0.0453333 18.4527C0.0566667 18.5147 0.0693333 18.5767 0.0846667 18.6374C0.102 18.7047 0.123333 18.7694 0.146 18.8347C0.205333 19.0074 0.277333 19.1741 0.368 19.3301L0.37 19.3334H23.63L23.6313 19.3307C23.7208 19.1736 23.7949 19.0081 23.8527 18.8367C23.8966 18.7116 23.9305 18.5832 23.954 18.4527C23.9813 18.3061 24 18.1554 24 18.0001H0C0 18.1554 0.0186667 18.3054 0.0453333 18.4527ZM0 15.3334H24V16.6667H0V15.3334ZM0 12.6667V14.0001H24V12.6667H12H0ZM12 10.0001H24V11.3334H12V10.0001ZM12 7.33341H24V8.66675H12V7.33341ZM0.37 4.66675L0.368 4.67008L0.37 4.66675ZM0.0853333 5.36275C0.102 5.29475 0.125333 5.23008 0.146667 5.16475C0.123515 5.22988 0.103054 5.29593 0.0853333 5.36275ZM12 6.00008H24C24 5.84475 23.9813 5.69408 23.954 5.54675C23.9307 5.41615 23.8965 5.28771 23.852 5.16275C23.7942 4.99062 23.7199 4.82451 23.63 4.66675H12V6.00008Z" fill="#F2F4F7"/>
<path d="M12 3.33325H2.66667C1.95942 3.33325 1.28115 3.6142 0.781049 4.1143C0.280952 4.6144 0 5.29267 0 5.99992L0 12.6666H12V3.33325Z" fill="#0B70FE"/>
<path d="M1.33398 5.15075L1.74598 5.45008L1.58865 5.93341L1.99998 5.63475L2.41198 5.93341L2.25465 5.45008L2.66665 5.15075H2.15732L1.99998 4.66675L1.84332 5.15075H1.33398ZM2.66732 6.48408L3.07932 6.78341L2.92198 7.26675L3.33332 6.96808L3.74532 7.26675L3.58798 6.78341L3.99998 6.48408H3.49065L3.33332 6.00008L3.17665 6.48408H2.66732ZM5.33398 6.48408L5.74599 6.78341L5.58865 7.26675L5.99998 6.96808L6.41198 7.26675L6.25465 6.78341L6.66665 6.48408H6.15732L5.99998 6.00008L5.84332 6.48408H5.33398ZM8.00065 6.48408L8.41265 6.78341L8.25532 7.26675L8.66665 6.96808L9.07865 7.26675L8.92132 6.78341L9.33332 6.48408H8.82399L8.66665 6.00008L8.50998 6.48408H8.00065ZM2.66732 9.15075L3.07932 9.45008L2.92198 9.93341L3.33332 9.63475L3.74532 9.93341L3.58798 9.45008L3.99998 9.15075H3.49065L3.33332 8.66675L3.17665 9.15075H2.66732ZM5.33398 9.15075L5.74599 9.45008L5.58865 9.93341L5.99998 9.63475L6.41198 9.93341L6.25465 9.45008L6.66665 9.15075H6.15732L5.99998 8.66675L5.84332 9.15075H5.33398ZM8.00065 9.15075L8.41265 9.45008L8.25532 9.93341L8.66665 9.63475L9.07865 9.93341L8.92132 9.45008L9.33332 9.15075H8.82399L8.66665 8.66675L8.50998 9.15075H8.00065ZM4.00065 5.15075L4.41265 5.45008L4.25532 5.93341L4.66665 5.63475L5.07865 5.93341L4.92132 5.45008L5.33332 5.15075H4.82398L4.66665 4.66675L4.50998 5.15075H4.00065ZM6.66732 5.15075L7.07932 5.45008L6.92198 5.93341L7.33332 5.63475L7.74532 5.93341L7.58799 5.45008L7.99998 5.15075H7.49065L7.33332 4.66675L7.17665 5.15075H6.66732ZM9.33398 5.15075L9.74599 5.45008L9.58865 5.93341L9.99998 5.63475L10.412 5.93341L10.2547 5.45008L10.6667 5.15075H10.1573L9.99998 4.66675L9.84332 5.15075H9.33398ZM1.33398 7.81741L1.74598 8.11675L1.58865 8.60008L1.99998 8.30141L2.41198 8.60008L2.25465 8.11675L2.66665 7.81741H2.15732L1.99998 7.33341L1.84332 7.81741H1.33398ZM4.25532 8.60008L4.66665 8.30141L5.07865 8.60008L4.92132 8.11675L5.33332 7.81741H4.82398L4.66665 7.33341L4.50998 7.81741H4.00065L4.41265 8.11675L4.25532 8.60008ZM6.66732 7.81741L7.07932 8.11675L6.92198 8.60008L7.33332 8.30141L7.74532 8.60008L7.58799 8.11675L7.99998 7.81741H7.49065L7.33332 7.33341L7.17665 7.81741H6.66732ZM9.33398 7.81741L9.74599 8.11675L9.58865 8.60008L9.99998 8.30141L10.412 8.60008L10.2547 8.11675L10.6667 7.81741H10.1573L9.99998 7.33341L9.84332 7.81741H9.33398ZM1.33398 10.4841L1.74598 10.7834L1.58865 11.2667L1.99998 10.9681L2.41198 11.2667L2.25465 10.7834L2.66665 10.4841H2.15732L1.99998 10.0001L1.84332 10.4841H1.33398ZM4.25532 11.2667L4.66665 10.9681L5.07865 11.2667L4.92132 10.7834L5.33332 10.4841H4.82398L4.66665 10.0001L4.50998 10.4841H4.00065L4.41265 10.7834L4.25532 11.2667ZM6.66732 10.4841L7.07932 10.7834L6.92198 11.2667L7.33332 10.9681L7.74532 11.2667L7.58799 10.7834L7.99998 10.4841H7.49065L7.33332 10.0001L7.17665 10.4841H6.66732ZM9.33398 10.4841L9.74599 10.7834L9.58865 11.2667L9.99998 10.9681L10.412 11.2667L10.2547 10.7834L10.6667 10.4841H10.1573L9.99998 10.0001L9.84332 10.4841H9.33398Z" fill="white"/>
</g>
<defs>
<clipPath id="clip0_563_12858">
<rect width="24" height="24" fill="white"/>
</clipPath>
</defs>
</svg>
